X: 9934
T: Devanny's Goat
R: reel
M: 4/4
K: Dmajor
|:DFAB AFAB|defe dBAF|DFAF BFAF|FEDF E3F|
DFAB AFAB|defe dBAf|ecdB A~F3|AFEA FD D2:|
|:faab afdf|a2 fd edBd|ABde fd d2|edfd edBd|
ABde fd d2|edfd edBd|A2 dB A~F3|AFEA FD D2:|

